X:375
T:B375-  Pretty Parrot Say, or Pretty Poll
Q:1/4=160
L:1/4
M:3/2
K:Am
AEEAc2|(d/c/) (B/c/) Ac e3/f/| e(a/e/)fedc|B2Aefe|\
[1 d2c2 z2:|[2 d2c2|| zd|(e/d/) (c/B/) (c/d/)c(d/c/) (B/A/)|\
(B/c/)B(c/B/) (A/^G/) (A/B/)A|ze(f/e/) (d/c/)gG|\
c2c2(e/f/e/f/)|gg(g/f/e/) d/c2|(c/d/c/d/) ee(e/d/c/B/)|\
AeAe(d/c/) (B/A/)|A4z2|]

